X: 1746
T: Navvy on the Line
B: australian traditional tunes wiki
M:C
L:1/8
R: Schottische
Q: 1/4=100
K:C
V:1 
c>B|"C"A>G E>F G>E C>D|E>E "F"A>A "C"G>E C>D|E>E "F"A>A "C"G>E C>D|E>E "F"A>A "C"G2 c>B|
"C"A>G E>F G>E C>D|E>E "F"A>A "C"G>E C>D|C>D E>F G>A B>c|"G7" d2 "C" c2 c2 c>B|
"C"G>G c>e "F"f2 e>d|"C"G>G c>d e2 g>e|"G7"d>c B>A G>A B>c|d>c B>A G2G2|
"C"G>G c>e "F"f2 e>d|"C"G>G c>d e2 g>e|"G7"d>c B>A G>A B>c|d2"C"c2c2||
% abcbook-tune_id 6342d53a4e6147c7c0d2187e


% abcbook-boost 0
% abcbook-tablature 
% abcbook-transpose 
% abcbook-lastupdated 1665324381492
% abcbook-soundfonts 
% abcbook-repeats 1
% NFF Book 2019
% Bush Traditions recording played by Ray Mulligan

